public/front/assets/imgs/brand/acer.svg

<svg width="166" height="40" viewBox="0 0 166 40" fill="none" xmlns="http://www.w3.org/2000/svg">
<g clip-path="url(#clip0_992_188)">
<path d="M165.501 1.80014C164.901 1.00014 164.301 0.400141 161.401 0.200141C160.701 0.100141 158.201 0.100141 154.101 0.100141C143.301 0.100141 135.901 3.40014 132.201 9.90014C133.201 3.30014 126.901 0.100141 113.101 0.100141C97.0014 0.000141263 86.9014 6.60014 82.8014 19.6001C81.3014 23.4001 81.2014 27.6001 82.3014 31.6001L78.5014 31.9001C75.5014 32.1001 71.6014 32.3001 69.2014 32.3001C63.3014 32.3001 59.6014 31.3001 58.2014 29.3001C56.9014 27.5001 57.1014 24.2001 58.5014 19.3001C61.0014 11.3001 67.1014 7.70014 76.8014 7.70014C81.9014 7.70014 86.8014 8.20014 86.8014 8.20014C87.4014 8.10014 87.8014 7.50014 87.7014 6.90014C87.7014 6.90014 87.7014 6.90014 87.7014 6.80014L87.6014 6.00014L87.3014 3.30014C87.1014 1.50014 85.8014 0.500141 83.4014 0.100141C81.3014 0.100141 79.6014 0.000141261 77.2014 0.000141261H77.1014C64.3014 0.000141261 55.4014 4.30014 50.4014 12.7001C52.2014 4.20014 46.3014 0.000141261 32.6014 0.000141261C27.1014 -0.0998587 21.7014 0.100141 16.3014 0.700141C14.2014 0.700141 12.4014 1.90014 11.7014 3.90014L10.6014 7.40014C10.4014 8.00014 10.7014 8.40014 11.5014 8.40014C12.1014 8.30014 14.4014 8.10014 18.4014 7.80014C23.6014 7.20014 27.5014 7.00014 30.0014 7.00014C37.5014 7.00014 40.7014 8.90014 39.5014 12.7001C39.3014 13.5001 38.6014 14.1001 37.8014 14.3001C30.7014 15.5001 25.0014 16.3001 20.9014 16.9001C9.10142 18.3001 2.40142 22.0001 0.50142 27.9001C-1.99858 35.9001 4.30142 39.9001 19.4014 39.9001C25.7014 40.0001 32.1014 39.5001 38.3014 38.6001C41.2014 38.1001 42.7014 37.3001 43.3014 35.4001L46.1014 26.4001C45.8014 35.4001 52.1014 39.9001 64.9014 39.9001C69.4014 40.0001 73.8014 39.8001 78.2014 39.3001C80.8014 38.8001 82.1014 38.3001 82.7014 36.3001L83.3014 33.5001C86.0014 37.8001 92.0014 39.9001 101.301 39.9001C111.101 39.9001 116.801 39.6001 118.401 39.1001C119.501 38.9001 120.501 38.1001 120.901 37.0001C121.001 36.8001 121.001 36.6001 121.001 36.4001L122.201 32.6001C122.401 31.9001 122.101 31.6001 121.301 31.6001L115.001 31.9001C110.801 32.1001 107.601 32.3001 105.201 32.2001C102.101 32.4001 99.0014 32.1001 96.0014 31.3001C93.6014 30.5001 92.1014 28.1001 92.5014 25.6001L112.301 23.0001C121.201 21.9001 127.101 19.1001 130.101 14.8001L123.401 38.3001C123.301 38.7001 123.301 39.1001 123.501 39.4001C123.901 39.7001 124.301 39.9001 124.801 39.8001H133.001C133.901 39.9001 134.901 39.4001 135.101 38.4001L142.301 13.0001C143.301 9.70014 146.301 8.00014 151.601 8.00014C156.401 8.00014 160.001 8.00014 162.301 8.10014C162.401 8.10014 162.401 8.10014 162.501 8.10014C163.301 8.10014 164.001 7.60014 164.201 6.80014L165.501 3.30014C165.901 3.00014 165.901 2.30014 165.501 1.80014ZM33.4014 32.3001C29.7014 32.8001 26.0014 33.0001 22.4014 32.9001C14.1014 32.9001 10.4014 31.2001 11.5014 27.8001C12.3014 25.4001 14.4014 23.9001 18.1014 23.4001L37.0014 20.9001L33.4014 32.3001ZM121.001 11.8001C120.201 14.4001 116.501 16.2001 109.901 17.1001L94.1014 19.4001L94.5014 18.1001C95.3014 14.6001 97.2014 11.5001 100.101 9.40014C102.501 7.90014 106.401 7.10014 111.801 7.10014C118.901 7.00014 122.001 8.60014 121.001 11.8001Z" fill="#80C343"/>
</g>
<defs>
<clipPath id="clip0_992_188">
<rect width="165.8" height="40" fill="white"/>
</clipPath>
</defs>
</svg>

<svg xmlns="http://www.w3.org/2000/svg" width="166" height="40" fill="none"><g clip-path="url(#a)"><path fill="#80C343" d="M165.501 1.8c-.6-.8-1.2-1.4-4.1-1.6-.7-.1-3.2-.1-7.3-.1-10.8 0-18.2 3.3-21.9 9.8 1-6.6-5.3-9.8-19.1-9.8-16.1-.1-26.2 6.5-30.3 19.5-1.5 3.8-1.6 8-.5 12l-3.8.3c-3 .2-6.9.4-9.3.4-5.9 0-9.6-1-11-3-1.3-1.8-1.1-5.1.3-10 2.5-8 8.6-11.6 18.3-11.6 5.1 0 10 .5 10 .5.6-.1 1-.7.9-1.3v-.1l-.1-.8-.3-2.7c-.2-1.8-1.5-2.8-3.9-3.2-2.1 0-3.8-.1-6.2-.1h-.1c-12.8 0-21.7 4.3-26.7 12.7 1.8-8.5-4.1-12.7-17.8-12.7-5.5-.1-10.9.1-16.3.7-2.1 0-3.9 1.2-4.6 3.2l-1.1 3.5c-.2.6.1 1 .9 1q.9-.15 6.9-.6c5.2-.6 9.1-.8 11.6-.8 7.5 0 10.7 1.9 9.5 5.7-.2.8-.9 1.4-1.7 1.6-7.1 1.2-12.8 2-16.9 2.6-11.8 1.4-18.5 5.1-20.4 11q-3.75 12 18.9 12c6.3.1 12.7-.4 18.9-1.3 2.9-.5 4.4-1.3 5-3.2l2.8-9c-.3 9 6 13.5 18.8 13.5 4.5.1 8.9-.1 13.3-.6 2.6-.5 3.9-1 4.5-3l.6-2.8c2.7 4.3 8.7 6.4 18 6.4 9.8 0 15.5-.3 17.1-.8 1.1-.2 2.1-1 2.5-2.1.1-.2.1-.4.1-.6l1.2-3.8c.2-.7-.1-1-.9-1l-6.3.3c-4.2.2-7.4.4-9.8.3-3.1.2-6.2-.1-9.2-.9-2.4-.8-3.9-3.2-3.5-5.7l19.8-2.6c8.9-1.1 14.8-3.9 17.8-8.2l-6.7 23.5c-.1.4-.1.8.1 1.1.4.3.8.5 1.3.4h8.2c.9.1 1.9-.4 2.1-1.4l7.2-25.4c1-3.3 4-5 9.3-5 4.8 0 8.4 0 10.7.1h.2c.8 0 1.5-.5 1.7-1.3l1.3-3.5c.4-.3.4-1 0-1.5m-132.1 30.5c-3.7.5-7.4.7-11 .6-8.3 0-12-1.7-10.9-5.1.8-2.4 2.9-3.9 6.6-4.4l18.9-2.5zm87.6-20.5c-.8 2.6-4.5 4.4-11.1 5.3l-15.8 2.3.4-1.3c.8-3.5 2.7-6.6 5.6-8.7 2.4-1.5 6.3-2.3 11.7-2.3 7.1-.1 10.2 1.5 9.2 4.7"/></g><defs><clipPath id="a"><path fill="#fff" d="M0 0h165.8v40H0z"/></clipPath></defs></svg>
